svgs/sharp-thin/computer-mouse-scrollwheel.svg

<svg xmlns="http://www.w3.org/2000/svg" viewBox="0 0 384 512"><!--! Font Awesome Pro 6.5.2 by @fontawesome - https://fontawesome.com License - https://fontawesome.com/license (Commercial License) Copyright 2024 Fonticons, Inc. --><path d="M224 496c79.5 0 144-64.5 144-144V16H16V352c0 79.5 64.5 144 144 144h64zM0 0H16 368h16V16 352c0 88.4-71.6 160-160 160H160C71.6 512 0 440.4 0 352V16 0zM176 112v64h32V112H176zM160 96h16 32 16v16 64 16H208 176 160V176 112 96z"/></svg>

<svg xmlns="http://www.w3.org/2000/svg" viewBox="0 0 384 512"><!--! Font Awesome Pro 6.6.0 by @fontawesome - https://fontawesome.com License - https://fontawesome.com/license (Commercial License) Copyright 2024 Fonticons, Inc. --><path d="M224 496c79.5 0 144-64.5 144-144l0-336L16 16l0 336c0 79.5 64.5 144 144 144l64 0zM0 0L16 0 368 0l16 0 0 16 0 336c0 88.4-71.6 160-160 160l-64 0C71.6 512 0 440.4 0 352L0 16 0 0zM176 112l0 64 32 0 0-64-32 0zM160 96l16 0 32 0 16 0 0 16 0 64 0 16-16 0-32 0-16 0 0-16 0-64 0-16z"/></svg>
